Newaita/actions/16/edit-paste-in-place.svg

<svg height="16" viewBox="0 0 16 16" width="16" xmlns="http://www.w3.org/2000/svg"><path d="m7.9375 1.777344c-2.382812 0-4.300781 1.917968-4.300781 4.300781 0 .085937.003906.171875.007812.257813.109375 3.15625 2.160157 5.816406 3.789063 7.773437.261718.3125.746094.3125 1.011718 0 1.625-1.957031 3.675782-4.617187 3.785157-7.773437.003906-.085938.007812-.171876.007812-.257813 0-2.382813-1.917969-4.300781-4.300781-4.300781zm0 1.324218c1.648438 0 2.976562 1.328126 2.976562 2.976563s-1.328124 2.976563-2.976562 2.976563-2.976562-1.328126-2.976562-2.976563 1.328124-2.976563 2.976562-2.976563zm0 0" fill="#424242"/></svg>

<svg xmlns="http://www.w3.org/2000/svg" xmlns:xlink="http://www.w3.org/1999/xlink" width="16px" height="16px" viewBox="0 0 16 16" version="1.1">
<g id="surface1">
     <defs>
  <style id="current-color-scheme" type="text/css">
   .ColorScheme-Text { color:#424242; } .ColorScheme-Highlight { color:#eeeeee; }
  </style>
 </defs>
<path style="fill:currentColor" class="ColorScheme-Text" d="M 7.9375 1.777344 C 5.554688 1.777344 3.636719 3.695312 3.636719 6.078125 C 3.636719 6.164062 3.640625 6.25 3.644531 6.335938 C 3.753906 9.492188 5.804688 12.152344 7.433594 14.109375 C 7.695312 14.421875 8.179688 14.421875 8.445312 14.109375 C 10.070312 12.152344 12.121094 9.492188 12.230469 6.335938 C 12.234375 6.25 12.238281 6.164062 12.238281 6.078125 C 12.238281 3.695312 10.320312 1.777344 7.9375 1.777344 Z M 7.9375 3.101562 C 9.585938 3.101562 10.914062 4.429688 10.914062 6.078125 C 10.914062 7.726562 9.585938 9.054688 7.9375 9.054688 C 6.289062 9.054688 4.960938 7.726562 4.960938 6.078125 C 4.960938 4.429688 6.289062 3.101562 7.9375 3.101562 Z M 7.9375 3.101562 "/>
</g>
</svg>
